misc/icons/Mountain/16x16/apps/avogadro-icon.svg

<svg xmlns="http://www.w3.org/2000/svg" width="16" height="16" version="1.1">
 <path style="fill:#4f4f4f" d="M 6.7735241,1.0024994 C 6.5068823,1.0207903 6.4619506,1.1471313 6.3134767,1.519294 L 1.190065,14.36123 c -0.26919918,0.619642 -0.33594168,0.620017 0.3650303,0.620017 h 1.8107964 c 0.6979005,0.05399 0.7409804,0.02521 0.9713631,-0.552341 L 5.3708233,12.050105 H 7.9998617 10.6289 l 1.033569,2.378801 c 0.230382,0.577551 0.273462,0.606326 0.971363,0.552341 h 1.810796 c 0.700972,0 0.63423,-3.85e-4 0.36503,-0.620017 L 9.6862467,1.519294 C 9.5377728,1.1471313 9.4928411,1.0207903 9.2261993,1.0024994 9.1373189,0.99640238 9.0236027,1.0018239 8.8734736,1.0148039 H 7.9998617 7.1262498 C 6.9761207,1.0018233 6.8624045,0.99640249 6.7735241,1.0024994 Z M 7.9998617,5.2469145 9.5146691,8.9498518 H 7.9998617 6.4850547 Z"/>
 <ellipse style="fill:none;stroke:#ff631b;stroke-width:1.36193657;stroke-linecap:round;stroke-linejoin:round" cx="10.597" cy="3.254" rx="8.289" ry="1.906" transform="matrix(0.88022727,0.47455236,-0.40813056,0.91292357,0,0)"/>
 <circle style="fill:#ffc500" cx="4" cy="4" r="2"/>
 <ellipse style="fill:none;stroke:#ff631b;stroke-width:1.36193657;stroke-linecap:round;stroke-linejoin:round" cx="-4.05" cy="10.867" rx="8.289" ry="1.906" transform="matrix(-0.88022727,0.47455236,0.40813056,0.91292357,0,0)"/>
 <path style="fill:#4f4f4f" d="M 11.508188,6.0852931 12.483672,8.5298137 5.9697355,12.050402 H 5.3709098 L 5.117,12.433896 1.2276664,14.267191 2.8621316,10.170431 6.676,8.3213185 6.4851628,8.9501483 H 7.9999999 9.5148371 L 8.836715,7.3472017 Z"/>
 <path style="fill:#4f4f4f" d="M 4.491812,6.0852931 3.5163281,8.5298137 10.030264,12.050402 h 0.598826 l 0.25391,0.383494 3.889333,1.833295 -1.634465,-4.09676 L 9.324,8.3213185 9.5148371,8.9501483 H 7.9999999 6.4851628 l 0.678122,-1.6029466 z"/>
 <path style="fill:#ff631b" d="m 5.544556,6.4370338 1.3742352,0.761854 C 5.684179,7.8947062 4.573982,8.6172887 3.673182,9.2939858 L 2.571663,8.4581789 C 3.409401,7.7987281 4.414975,7.1113477 5.544556,6.4370338 Z"/>
 <path style="fill:#ff631b" d="m 10.454872,6.4370338 -1.3742352,0.761854 c 1.2346122,0.6958184 2.3448092,1.4184009 3.2456092,2.095098 L 13.427765,8.4581789 C 12.590027,7.7987281 11.584453,7.1113477 10.454872,6.4370338 Z"/>
 <circle style="fill:#ffc500" cx="13.5" cy="6.5" r="1.5"/>
</svg>

<svg xmlns="http://www.w3.org/2000/svg" width="16" height="16" version="1.1">
 <path style="fill:#4f4f4f" d="M 6.7735,1 C 6.5063,1 6.462,1.1471 6.3135,1.5193 L 1.1901,14.361 C 0.92087,14.981 0.85412,15 1.5551,15 H 3.3659 C 4.0642,15 4.1069,15.006 4.3373,14.429 L 5.3708,12.05 H 10.629 L 11.662,14.429 C 11.893,15.006 11.936,15 12.634,15 H 14.445 C 15.146,15 15.079,14.981 14.81,14.361 L 9.6862,1.5193 C 9.5378,1.1471 9.4935,1 9.2262,1 Z M 7.9999,5.2469 9.5147,9 H 6.4851 Z"/>
 <ellipse style="fill:none;stroke:#ff631b;stroke-width:1.36194;stroke-linecap:round;stroke-linejoin:round" cx="10.597" cy="3.254" rx="8.289" ry="1.906" transform="matrix(0.88023,0.47455,-0.40813,0.91292,0,0)"/>
 <circle style="fill:#ffc500" cx="4" cy="4" r="2"/>
 <ellipse style="fill:none;stroke:#ff631b;stroke-width:1.36194;stroke-linecap:round;stroke-linejoin:round" cx="-4.05" cy="10.867" rx="8.289" ry="1.906" transform="matrix(-0.88023,0.47455,0.40813,0.91292,0,0)"/>
 <path style="fill:#4f4f4f" d="M 11.508,6.0853 12.484,8.5298 5.9697,12.05 H 5.3709 L 5.117,12.434 1.2277,14.267 2.8621,10.17 6.676,8.3213 6.4852,8.9501 H 8 9.5148 L 8.8367,7.3472 Z"/>
 <path style="fill:#4f4f4f" d="M 4.4918,6.0853 3.5163,8.5298 10.03,12.05 H 10.629 L 10.883,12.434 14.772,14.267 13.138,10.17 9.324,8.3213 9.5148,8.9501 H 8 6.4852 L 7.1633,7.3472 Z"/>
 <path style="fill:#ff631b" d="M 5.5446,6.437 6.9188,7.1989 C 5.6842,7.8947 4.574,8.6173 3.6732,9.294 L 2.5717,8.4582 C 3.4094,7.7987 4.415,7.1113 5.5446,6.437 Z"/>
 <path style="fill:#ff631b" d="M 10.455,6.437 9.0806,7.1989 C 10.315,7.8947 11.425,8.6173 12.326,9.294 L 13.428,8.4582 C 12.59,7.7987 11.584,7.1113 10.455,6.437 Z"/>
 <circle style="fill:#ffc500" cx="13.5" cy="6.5" r="1.5"/>
</svg>
